X: 1
T:Traditional Reel
M:C
L:1/8
Q:80
C:Trad. Arr. Bruce Gandy
S:Reel
K:HP
|: {gAGAG}A2ag{aef}e2dB|
{g}degd{gBd}B2{g}A{d}G|
{g}Aa{g}ag{a}ed{g}eg|  !
{a}dBgB{gAGAG}A2{g}A{d}B:| |:
{gAGAG}A2{g}Bd{gef}e2dB|
{g}degd{gBd}B2{g}A{d}G|  !
{g}Aa{g}ag{a}ed{g}eg|
{a}dBgB{gAGAG}A2{g}A{d}B:|
